X:1
T:Valse Triste
T:Valse Triste
T:abc file by Bernard Loffet
C:abc file by Bernard Loffet
L:1/8
Q:1/8=240
M:3/4
K:C
V:1 treble 
V:1
|: [A,E]2 A,2 [A,F]2 | [A,E]2 A,2 [A,F]2 | [A,E]2 A,2 A,2 | [A,E]2 [A,F]2 [A,E]2 | %4
 [G,D]2 G,2 [G,E]2 | [G,D]2 G,2 [G,E]2 | [G,D]2 G,2 G,2 | [G,D]2 [G,E]2 [G,D]2 | %8
 [F,C]2 F,2 [F,D]2 | [F,C]2 F,2 [F,D]2 | [F,C]2 F,2 F,2 | [F,C]2 [F,D]2 [F,C]2 | [G,B,]2 G,2 G,2 | %13
 G,2 [G,C]2 [G,D]2 | [E,B,]2 E,2 E,2 | [E,B,]2 [E,C]2 [E,D]2 | [A,E]2 A,2 A,2 | %17
 [A,F]2 [A,E]2 [A,F]2 | [A,A]2 A,2 A,2 | [A,E]2 [A,A]2 [A,E]2 | [G,D]2 G,2 G,2 | %21
 [G,E]2 [G,D]2 [G,E]2 | [G,B]2 G,2 G,2 | [G,D]2 [G,B]2 [G,D]2 | [F,C]2 F,2 F,2 | %25
 [F,D]2 [F,C]2 [F,D]2 | [F,A]2 F,2 F,2 | [F,A]2 [F,B]2 [F,c]2 | [G,B]2 G,2 G,2 | %29
 [G,B]2 [G,c]2 [G,d]2 | [E,B]2 E,2 E,2 | [E,B,]2 [E,C]2 [E,D]2 :| z6 | %33

